X: 5171
T: Bring Back The Child
R: jig
M: 6/8
K: Gmajor
|:gfe d2B|cAA BGG|gfe dB/c/d|cBA GBd|
gfe d2B|cAA BGG|EFG A2B|1 cAF GBd:|2 cAF G3||
|:FGA D3|cAA BGG|FGA DdB|cAF G3|
FGA D3|cAA BGG|FGA DdB|1 cAF G3:|2 cAF GBd||

